packages/kaspersky-hexa-ui-icons/src/iconsSVGs/64x42/FlagTr.svg

<svg xmlns="http://www.w3.org/2000/svg" width="64" height="42" fill="none" viewBox="0 0 64 42"><g clip-path="url(#a)"><rect width="64" height="42" fill="#fff" rx="5"/><path fill="#e92434" d="M0 0h64v42H0z"/><path fill="#fff" fill-rule="evenodd" d="m42.5439 22.6137-2.5722 3.1185.1752-4.0386-3.7606-1.4826 3.895-1.0813.2479-4.0348 2.2321 3.3703 3.9138-1.0111-2.5155 3.1643 2.171 3.4099z" clip-rule="evenodd"/><path fill="#fff" fill-rule="evenodd" d="M39.1458 13.2636c-1.7792-1.2932-4.0162-2.0635-6.446-2.0635-5.799 0-10.5 4.3876-10.5 9.8s4.701 9.8 10.5 9.8c2.4297 0 4.6666-.7703 6.4458-2.0634C36.84 31.6964 33.2422 33.6 29.1999 33.6c-6.9588 0-12.6-5.6412-12.6-12.6s5.6412-12.6 12.6-12.6c4.0425 0 7.6403 1.9038 9.9459 4.8636" clip-rule="evenodd"/></g><defs><clipPath id="a"><rect width="64" height="42" fill="#fff" rx="5"/></clipPath></defs></svg>

<svg width="64" height="42" viewBox="0 0 64 42" fill="none" xmlns="http://www.w3.org/2000/svg">
<g clip-path="url(#clip0_37941_2364)">
<rect width="64" height="42" rx="5" fill="white"/>
<rect width="64" height="42" fill="#E92434"/>
<path fill-rule="evenodd" clip-rule="evenodd" d="M42.5439 22.6137L39.9717 25.7322L40.1469 21.6936L36.3863 20.211L40.2813 19.1297L40.5292 15.0949L42.7613 18.4652L46.6751 17.4541L44.1596 20.6184L46.3306 24.0283L42.5439 22.6137Z" fill="white"/>
<path fill-rule="evenodd" clip-rule="evenodd" d="M39.1458 13.2636C37.3666 11.9704 35.1296 11.2001 32.6998 11.2001C26.9008 11.2001 22.1998 15.5877 22.1998 21.0001C22.1998 26.4125 26.9008 30.8001 32.6998 30.8001C35.1295 30.8001 37.3664 30.0298 39.1456 28.7367C36.84 31.6964 33.2422 33.6 29.1999 33.6C22.2411 33.6 16.5999 27.9588 16.5999 21C16.5999 14.0412 22.2411 8.40002 29.1999 8.40002C33.2424 8.40002 36.8402 10.3038 39.1458 13.2636Z" fill="white"/>
</g>
<defs>
<clipPath id="clip0_37941_2364">
<rect width="64" height="42" rx="5" fill="white"/>
</clipPath>
</defs>
</svg>
